Papirus/64x64/apps/ch.x29a.playitslowly.svg

<?xml version="1.0" encoding="UTF-8" standalone="no"?>
<svg
   id="_图层_1"
   version="1.1"
   viewBox="0 0 64 64" width="64" height="64"
   sodipodi:docname="ch.x29a.playitslowly.svg"
   xml:space="preserve"
   inkscape:version="1.4 (e7c3feb100, 2024-10-09)"
   xmlns:inkscape="http://www.inkscape.org/namespaces/inkscape"
   xmlns:sodipodi="http://sodipodi.sourceforge.net/DTD/sodipodi-0.dtd"
   xmlns="http://www.w3.org/2000/svg"
   xmlns:svg="http://www.w3.org/2000/svg"><sodipodi:namedview
     id="namedview26"
     pagecolor="#505050"
     bordercolor="#eeeeee"
     borderopacity="1"
     inkscape:showpageshadow="0"
     inkscape:pageopacity="0"
     inkscape:pagecheckerboard="0"
     inkscape:deskcolor="#505050"
     inkscape:zoom="10.6875"
     inkscape:cx="32"
     inkscape:cy="29.005848"
     inkscape:window-width="1920"
     inkscape:window-height="939"
     inkscape:window-x="0"
     inkscape:window-y="34"
     inkscape:window-maximized="1"
     inkscape:current-layer="_图层_1" /><!-- Generator: Adobe Illustrator 29.0.1, SVG Export Plug-In . SVG Version: 2.1.0 Build 192)  --><defs
     id="defs6"><style
       id="style1">
      .st0 {
        fill-opacity: .5;
      }

      .st0, .st1, .st2, .st3, .st4, .st5, .st6, .st7 {
        fill: #fff;
      }

      .st8 {
        fill: #133c9a;
      }

      .st2, .st9 {
        display: none;
      }

      .st3 {
        fill-opacity: .2;
      }

      .st4 {
        fill-opacity: .9;
      }

      .st10 {
        fill: #3370ff;
      }

      .st11 {
        fill: url(#_未命名的渐变_3);
      }

      .st12 {
        fill: url(#_未命名的渐变);
      }

      .st5 {
        fill-opacity: .3;
      }

      .st6 {
        fill-opacity: 0;
      }

      .st7 {
        fill-opacity: .7;
      }

      .st13 {
        fill: #00d6b9;
      }

      .st14 {
        fill: url(#_未命名的渐变_2);
      }
    </style><radialGradient
       id="_未命名的渐变"
       data-name="未命名的渐变"
       cx="123.9"
       cy="-40.2"
       fx="123.9"
       fy="-40.2"
       r="59.4"
       gradientTransform="translate(-26.8 25.5) scale(.6 -.7)"
       gradientUnits="userSpaceOnUse"><stop
         offset="0"
         stop-color="#db202e"
         id="stop1" /><stop
         offset="1"
         stop-color="#e01b24"
         id="stop2" /></radialGradient><radialGradient
       id="_未命名的渐变_2"
       data-name="未命名的渐变 2"
       cx="67.6"
       cy="26.8"
       fx="67.6"
       fy="26.8"
       r="105.2"
       gradientTransform="translate(-26.6 25.3) scale(.6 -.7)"
       gradientUnits="userSpaceOnUse"><stop
         offset="0"
         stop-color="#ffb648"
         id="stop3" /><stop
         offset="1"
         stop-color="#ff7800"
         stop-opacity="0"
         id="stop4" /></radialGradient><radialGradient
       id="_未命名的渐变_3"
       data-name="未命名的渐变 3"
       cx="61.7"
       cy="18.6"
       fx="61.7"
       fy="18.6"
       r="68"
       gradientTransform="translate(-26.8 25.8) scale(.6 -.7)"
       gradientUnits="userSpaceOnUse"><stop
         offset="0"
         stop-color="#c64600"
         id="stop5" /><stop
         offset="1"
         stop-color="#a51d2d"
         id="stop6" /></radialGradient></defs><path
     class="st1"
     d="M47.5,64.1H13.8c-7.6,0-13.8-6.3-13.8-13.8V13.7C0,6.2,6.2,0,13.7,0h36.6c7.5,0,13.7,6.2,13.7,13.7v36.6c0,7.5-6.2,13.7-13.7,13.7h-2.9.1Z"
     id="path6"
     style="fill:#e4e4e4;fill-opacity:1" /><g
     id="g26"
     transform="matrix(0.85185188,0,0,0.83748846,5.1617884,5.3839643)"><path
       style="opacity:0.2"
       d="m 45.144532,26.714286 c -1.21244,5.891278 -3.83116,11.169524 -7.50279,15.16462 C 28.751484,50.23698 19.382662,52.667466 9.8627234,54.194754 5.2042712,54.955892 2.0000002,55.624468 2.0000002,57.230468 2.0000002,59.770152 12.8,61 32,61 56.273528,61 56.334772,46.756156 56.285714,33.915738 v -7.201452 c 0,0 -11.428572,0 -11.141182,0 z"
       id="path1" /><path
       style="fill:#3f3f3f"
       d="m 45.144532,25.714286 c -1.21244,5.891278 -3.83116,11.169524 -7.50279,15.16462 C 28.751484,49.23698 19.382662,51.667466 9.8627234,53.194754 5.2042712,53.955892 2.0000002,54.624468 2.0000002,56.230468 2.0000002,58.770152 12.8,60 32,60 56.273528,60 56.334772,45.756156 56.285714,32.915738 v -7.201452 c 0,0 -11.428572,0 -11.141182,0 z"
       id="path2" /><path
       style="opacity:0.2"
       d="M 59,5 A 3,3 0 0 0 56,8 V 18.080078 A 8,8 0 0 0 52,17 8,8 0 0 0 49,17.587891 V 13 a 3,3 0 0 0 3,-3 3,3 0 0 0 -3,-3 3,3 0 0 0 -3,3 v 9.71875 A 8,8 0 0 0 44,25 a 8,8 0 0 0 8,8 8,8 0 0 0 8,-8 8,8 0 0 0 -1,-3.853516 V 11 A 3,3 0 0 0 62,8 3,3 0 0 0 59,5 Z"
       id="path3" /><path
       style="fill:#4f4f4f"
       d="m 49,6 a 3,3 0 0 0 -3,3 v 15 h 2 1 V 12 A 3,3 0 0 0 52,9 3,3 0 0 0 49,6 Z"
       id="path4" /><path
       style="fill:#4f4f4f"
       d="m 59,4 a 3,3 0 0 0 -3,3 v 15 h 2 1 V 10 A 3,3 0 0 0 62,7 3,3 0 0 0 59,4 Z"
       id="path5" /><circle
       style="opacity:0.2"
       cx="22"
       cy="35"
       r="20"
       id="circle5" /><circle
       style="fill:#af2158"
       cx="22"
       cy="34"
       r="20"
       id="circle6" /><path
       style="opacity:0.2;fill:none;stroke:#000000;stroke-width:2.71606"
       d="m 23.218119,35.000233 c -0.368251,-0.637829 0.678099,-0.811077 1.060114,-0.612057 1.035236,0.539332 0.834405,1.996633 0.163999,2.732285 -1.1992,1.315907 -3.298328,0.945248 -4.404455,-0.284059 -1.623286,-1.804057 -1.064488,-4.619528 0.732116,-6.076625 2.39459,-1.942081 5.947894,-1.187612 7.748795,1.180173 2.26625,2.979616 1.312808,7.279736 -1.62823,9.420966 -3.561991,2.593317 -8.613546,1.439214 -11.093137,-2.076288 -2.922112,-4.142897 -1.566382,-9.948585 2.524345,-12.765307 4.722907,-3.252017 11.284446,-1.694059 14.437478,2.972403 3.582676,5.30233 1.822091,12.620881 -3.42046,16.109648 -5.88135,3.91387 -13.957736,1.950381 -17.781819,-3.868517 C 7.3114088,35.272775 9.4780032,26.437948 15.87344,22.278866"
       id="path6-2" /><path
       style="fill:none;stroke:#ffffff;stroke-width:2.71606"
       d="m 23.218119,34.000233 c -0.368251,-0.637829 0.678099,-0.811077 1.060114,-0.612057 1.035236,0.539332 0.834405,1.996633 0.163999,2.732285 -1.1992,1.315907 -3.298328,0.945248 -4.404455,-0.284059 -1.623286,-1.804057 -1.064488,-4.619528 0.732116,-6.076625 2.39459,-1.942081 5.947894,-1.187612 7.748795,1.180173 2.26625,2.979616 1.312808,7.279736 -1.62823,9.420966 -3.561991,2.593317 -8.613546,1.439214 -11.093137,-2.076288 -2.922112,-4.142897 -1.566382,-9.948585 2.524345,-12.765307 4.722907,-3.252017 11.284446,-1.694059 14.437478,2.972403 3.582676,5.30233 1.822091,12.620881 -3.42046,16.109648 -5.88135,3.91387 -13.957736,1.950381 -17.781819,-3.868517 C 7.3114088,34.272775 9.4780032,25.437948 15.87344,21.278866"
       id="path7" /><circle
       style="fill:#4f4f4f"
       cx="52"
       cy="24"
       r="8"
       id="circle7" /><path
       style="opacity:0.3"
       d="M 49.499997,21 A 2.4999977,2.4999977 0 0 0 47,23.499997 2.4999977,2.4999977 0 0 0 47.08057,24.12988 2.4999977,2.4999977 0 0 1 49.5,22.249999 2.4999977,2.4999977 0 0 1 51.919432,24.120115 2.4999977,2.4999977 0 0 0 52.000002,23.499997 2.4999977,2.4999977 0 0 0 49.500003,21 Z"
       id="path8" /><path
       style="opacity:0.2;fill:#ffffff"
       d="M 22,14 A 20,20 0 0 0 2,34 20,20 0 0 0 2.0175781,34.494141 20,20 0 0 1 22,15 20,20 0 0 1 41.974609,34.490234 20,20 0 0 0 42,34 20,20 0 0 0 22,14 Z"
       id="path9" /><path
       style="opacity:0.1;fill:#ffffff"
       d="M 59,4 A 3,3 0 0 0 56,7 V 8 A 3,3 0 0 1 59,5 3,3 0 0 1 61.957031,7.5136719 3,3 0 0 0 62,7 3,3 0 0 0 59,4 Z M 49,6 a 3,3 0 0 0 -3,3 v 1 A 3,3 0 0 1 49,7 3,3 0 0 1 51.957031,9.5136719 3,3 0 0 0 52,9 3,3 0 0 0 49,6 Z m 3,10 a 8,8 0 0 0 -3,0.587891 v 1 A 8,8 0 0 1 52,17 a 8,8 0 0 1 4,1.080078 v -1 A 8,8 0 0 0 52,16 Z m -6,2.71875 A 8,8 0 0 0 44,24 8,8 0 0 0 44.025391,24.513672 8,8 0 0 1 46,19.71875 Z m 13,1.427734 v 1 A 8,8 0 0 1 59.978516,24.582031 8,8 0 0 0 60,24 8,8 0 0 0 59,20.146484 Z"
       id="path10" /><path
       style="opacity:0.3"
       d="M 55.499997,21 A 2.4999977,2.4999977 0 0 0 53,23.499997 2.4999977,2.4999977 0 0 0 53.08057,24.12988 2.4999977,2.4999977 0 0 1 55.5,22.249999 2.4999977,2.4999977 0 0 1 57.919432,24.120115 2.4999977,2.4999977 0 0 0 58.000002,23.499997 2.4999977,2.4999977 0 0 0 55.500003,21 Z"
       id="path11" /></g></svg>

<svg xmlns="http://www.w3.org/2000/svg" width="64" height="64" version="1.1">
 <path style="opacity:0.2" d="m 45.144532,26.714286 c -1.21244,5.891278 -3.83116,11.169524 -7.50279,15.16462 C 28.751484,50.23698 19.382662,52.667466 9.8627234,54.194754 5.2042712,54.955892 2.0000002,55.624468 2.0000002,57.230468 2.0000002,59.770152 12.8,61 32,61 56.273528,61 56.334772,46.756156 56.285714,33.915738 v -7.201452 c 0,0 -11.428572,0 -11.141182,0 z"/>
 <path style="fill:#3f3f3f" d="m 45.144532,25.714286 c -1.21244,5.891278 -3.83116,11.169524 -7.50279,15.16462 C 28.751484,49.23698 19.382662,51.667466 9.8627234,53.194754 5.2042712,53.955892 2.0000002,54.624468 2.0000002,56.230468 2.0000002,58.770152 12.8,60 32,60 56.273528,60 56.334772,45.756156 56.285714,32.915738 v -7.201452 c 0,0 -11.428572,0 -11.141182,0 z"/>
 <path style="opacity:0.2" d="M 59,5 A 3,3 0 0 0 56,8 V 18.080078 A 8,8 0 0 0 52,17 8,8 0 0 0 49,17.587891 V 13 a 3,3 0 0 0 3,-3 3,3 0 0 0 -3,-3 3,3 0 0 0 -3,3 v 9.71875 A 8,8 0 0 0 44,25 a 8,8 0 0 0 8,8 8,8 0 0 0 8,-8 8,8 0 0 0 -1,-3.853516 V 11 A 3,3 0 0 0 62,8 3,3 0 0 0 59,5 Z"/>
 <path style="fill:#4f4f4f" d="M 49 6 A 3 3 0 0 0 46 9 L 46 24 L 48 24 L 49 24 L 49 12 A 3 3 0 0 0 52 9 A 3 3 0 0 0 49 6 z"/>
 <path style="fill:#4f4f4f" d="M 59 4 A 3 3 0 0 0 56 7 L 56 22 L 58 22 L 59 22 L 59 10 A 3 3 0 0 0 62 7 A 3 3 0 0 0 59 4 z"/>
 <circle style="opacity:0.2" cx="22" cy="35" r="20"/>
 <circle style="fill:#af2158" cx="22" cy="34" r="20"/>
 <path style="opacity:0.2;fill:none;stroke:#000000;stroke-width:2.71606469" d="m 23.218119,35.000233 c -0.368251,-0.637829 0.678099,-0.811077 1.060114,-0.612057 1.035236,0.539332 0.834405,1.996633 0.163999,2.732285 -1.1992,1.315907 -3.298328,0.945248 -4.404455,-0.284059 -1.623286,-1.804057 -1.064488,-4.619528 0.732116,-6.076625 2.39459,-1.942081 5.947894,-1.187612 7.748795,1.180173 2.26625,2.979616 1.312808,7.279736 -1.62823,9.420966 -3.561991,2.593317 -8.613546,1.439214 -11.093137,-2.076288 -2.922112,-4.142897 -1.566382,-9.948585 2.524345,-12.765307 4.722907,-3.252017 11.284446,-1.694059 14.437478,2.972403 3.582676,5.30233 1.822091,12.620881 -3.42046,16.109648 -5.88135,3.91387 -13.957736,1.950381 -17.781819,-3.868517 C 7.3114088,35.272775 9.4780032,26.437948 15.87344,22.278866"/>
 <path style="fill:none;stroke:#ffffff;stroke-width:2.71606469" d="m 23.218119,34.000233 c -0.368251,-0.637829 0.678099,-0.811077 1.060114,-0.612057 1.035236,0.539332 0.834405,1.996633 0.163999,2.732285 -1.1992,1.315907 -3.298328,0.945248 -4.404455,-0.284059 -1.623286,-1.804057 -1.064488,-4.619528 0.732116,-6.076625 2.39459,-1.942081 5.947894,-1.187612 7.748795,1.180173 2.26625,2.979616 1.312808,7.279736 -1.62823,9.420966 -3.561991,2.593317 -8.613546,1.439214 -11.093137,-2.076288 -2.922112,-4.142897 -1.566382,-9.948585 2.524345,-12.765307 4.722907,-3.252017 11.284446,-1.694059 14.437478,2.972403 3.582676,5.30233 1.822091,12.620881 -3.42046,16.109648 -5.88135,3.91387 -13.957736,1.950381 -17.781819,-3.868517 C 7.3114088,34.272775 9.4780032,25.437948 15.87344,21.278866"/>
 <circle style="fill:#4f4f4f" cx="52" cy="24" r="8"/>
 <path style="opacity:0.3" d="M 49.499997,21 A 2.4999977,2.4999977 0 0 0 47,23.499997 2.4999977,2.4999977 0 0 0 47.08057,24.12988 2.4999977,2.4999977 0 0 1 49.5,22.249999 2.4999977,2.4999977 0 0 1 51.919432,24.120115 2.4999977,2.4999977 0 0 0 52.000002,23.499997 2.4999977,2.4999977 0 0 0 49.500003,21 Z"/>
 <path style="opacity:0.2;fill:#ffffff" d="M 22 14 A 20 20 0 0 0 2 34 A 20 20 0 0 0 2.0175781 34.494141 A 20 20 0 0 1 22 15 A 20 20 0 0 1 41.974609 34.490234 A 20 20 0 0 0 42 34 A 20 20 0 0 0 22 14 z"/>
 <path style="opacity:0.1;fill:#ffffff" d="M 59 4 A 3 3 0 0 0 56 7 L 56 8 A 3 3 0 0 1 59 5 A 3 3 0 0 1 61.957031 7.5136719 A 3 3 0 0 0 62 7 A 3 3 0 0 0 59 4 z M 49 6 A 3 3 0 0 0 46 9 L 46 10 A 3 3 0 0 1 49 7 A 3 3 0 0 1 51.957031 9.5136719 A 3 3 0 0 0 52 9 A 3 3 0 0 0 49 6 z M 52 16 A 8 8 0 0 0 49 16.587891 L 49 17.587891 A 8 8 0 0 1 52 17 A 8 8 0 0 1 56 18.080078 L 56 17.080078 A 8 8 0 0 0 52 16 z M 46 18.71875 A 8 8 0 0 0 44 24 A 8 8 0 0 0 44.025391 24.513672 A 8 8 0 0 1 46 19.71875 L 46 18.71875 z M 59 20.146484 L 59 21.146484 A 8 8 0 0 1 59.978516 24.582031 A 8 8 0 0 0 60 24 A 8 8 0 0 0 59 20.146484 z"/>
 <path style="opacity:0.3" d="M 55.499997,21 A 2.4999977,2.4999977 0 0 0 53,23.499997 2.4999977,2.4999977 0 0 0 53.08057,24.12988 2.4999977,2.4999977 0 0 1 55.5,22.249999 2.4999977,2.4999977 0 0 1 57.919432,24.120115 2.4999977,2.4999977 0 0 0 58.000002,23.499997 2.4999977,2.4999977 0 0 0 55.500003,21 Z"/>
</svg>
